src/assets/svg/blob-2.svg

<?xml version="1.0" encoding="UTF-8"?>
<svg width="40px" height="40px" viewBox="0 0 40 40" version="1.1" xmlns="http://www.w3.org/2000/svg" xmlns:xlink="http://www.w3.org/1999/xlink">
    <title>Sub-Atomic/Blobs/Blob 2</title>
    <g id="Sub-Atomic/Blobs/Blob-2" stroke="none" stroke-width="1" fill="none" fill-rule="evenodd">
        <path d="M19.2396176,39.9954733 C18.4805793,39.9721139 17.7337922,39.9170676 16.9835496,39.8086405 C15.6074616,39.6118148 14.2366242,39.2264482 12.960431,38.7043413 C10.6587687,37.7651382 8.51134627,36.4690097 6.60235185,34.9309594 C4.39537857,33.1510728 2.58277851,30.7122109 1.71329952,28.0748578 C1.60837865,27.7569645 1.51481149,27.438089 1.43241854,27.117975 C0.610059696,25.488793 0.235028164,23.7033121 0.0782302486,21.8995963 C-0.0914022983,19.4645778 -0.028036913,16.9961216 0.701831802,14.6362633 C1.11379656,13.3000778 1.62915639,11.9955792 2.31984807,10.7644899 C2.93864785,9.66685261 3.6678883,8.64091637 4.45147399,7.6450442 C6.02039554,5.65492264 7.95568749,3.92508585 10.1311127,2.55383991 C11.3494603,1.78648026 12.7377995,1.2426794 14.1173878,0.80060098 C15.4812245,0.36356171 16.9099075,0.110024271 18.3455912,0.0265794077 C23.3696316,-0.260310353 28.1692903,1.80484326 31.9802784,4.78917151 C34.0628545,6.41895133 35.9017072,8.44742165 37.2339958,10.6810878 C38.5679898,12.9197503 39.451515,15.3335446 39.8353872,17.8824564 C40.2193043,20.4297453 39.8985282,23.0570628 39.2165874,25.5309425 C38.5346915,28.0081532 37.2444969,30.4486379 35.6054785,32.4721117 C33.891023,34.5873152 31.7436455,36.253821 29.2719467,37.5082698 C28.0238012,38.1421774 26.7108094,38.6509605 25.3627691,39.0563129 C24.077825,39.4399714 22.7280346,39.7686263 21.3852449,39.8853808 C20.7664003,39.9389324 20.1460747,40 19.5245374,40 C19.4295791,40 19.3346657,39.9985907 19.2396176,39.9954733 Z" id="Fill-11" fill="#0062C3"></path>
    </g>
</svg>

<svg width="40" height="40" viewBox="0 0 40 40" xmlns="http://www.w3.org/2000/svg"><g id="Sub-Atomic/Blobs/Blob-2" stroke="none" stroke-width="1" fill-rule="evenodd"><path d="M19.24 39.995a19.995 19.995 0 0 1-2.256-.186 17.121 17.121 0 0 1-4.024-1.105 25.604 25.604 0 0 1-6.358-3.773c-2.207-1.78-4.02-4.219-4.889-6.856a14.909 14.909 0 0 1-.28-.957C.61 25.488.234 23.703.077 21.9c-.17-2.435-.106-4.904.624-7.264.412-1.336.927-2.64 1.618-3.872.619-1.097 1.348-2.123 2.131-3.119a22.564 22.564 0 0 1 5.68-5.091C11.35 1.786 12.738 1.243 14.117.8a17.14 17.14 0 0 1 4.229-.774C23.37-.26 28.169 1.805 31.98 4.789c2.083 1.63 3.922 3.658 5.254 5.892 1.334 2.239 2.218 4.653 2.601 7.201.384 2.548.064 5.175-.618 7.649-.682 2.477-1.973 4.918-3.612 6.941-1.714 2.115-3.861 3.782-6.333 5.036a23.686 23.686 0 0 1-3.91 1.548c-1.284.384-2.634.713-3.977.83-.619.053-1.239.114-1.86.114-.095 0-.19-.001-.285-.005Z" id="Fill-11"/></g></svg>
